X: 119
T:Pasacorredoiras nº1
M:2/4
L:1/16
Q:100
C:Trad
R:Pasacorredoiras
K:C
G2 | E>FEC ECDE | G3E GEGE |F>GFD FDFA | GFED C2G2 | E>FEC ECDE |
G3E GEGE | F>GFD FDB,D |1 {B,}C6 :|2 |: {B,}C8| A3F A3F | G2"~"E2 CDEF |
 G2AB cBAB | G4 ECEG |
cBAG AGFE | GFEF D2EF |G2EC EFDB, :| C6 ||

